svg/part/eyebrow_line.svg

<?xml version="1.0" encoding="UTF-8"?>
<svg width="24px" height="24px" viewBox="0 0 24 24" version="1.1" xmlns="http://www.w3.org/2000/svg" xmlns:xlink="http://www.w3.org/1999/xlink">
    <title>eyebrow_line</title>
    <g id="页面-1" stroke="none" stroke-width="1" fill="none" fill-rule="evenodd">
        <g id="Part" transform="translate(-192.000000, 0.000000)">
            <g id="eyebrow_line" transform="translate(192.000000, 0.000000)">
                 <path d="M24,0 L24,24 L0,24 L0,0 L24,0 Z M12.5934901,23.257841 L12.5819402,23.2595131 L12.5108777,23.2950439 L12.4918791,23.2987469 L12.4918791,23.2987469 L12.4767152,23.2950439 L12.4056548,23.2595131 C12.3958229,23.2563662 12.3870493,23.2590235 12.3821421,23.2649074 L12.3780323,23.275831 L12.360941,23.7031097 L12.3658947,23.7234994 L12.3769048,23.7357139 L12.4804777,23.8096931 L12.4953491,23.8136134 L12.4953491,23.8136134 L12.5071152,23.8096931 L12.6106902,23.7357139 L12.6232938,23.7196733 L12.6232938,23.7196733 L12.6266527,23.7031097 L12.609561,23.275831 C12.6075724,23.2657013 12.6010112,23.2592993 12.5934901,23.257841 L12.5934901,23.257841 Z M12.8583906,23.1452862 L12.8445485,23.1473072 L12.6598443,23.2396597 L12.6498822,23.2499052 L12.6498822,23.2499052 L12.6471943,23.2611114 L12.6650943,23.6906389 L12.6699349,23.7034178 L12.6699349,23.7034178 L12.678386,23.7104931 L12.8793402,23.8032389 C12.8914285,23.8068999 12.9022333,23.8029875 12.9078286,23.7952264 L12.9118235,23.7811639 L12.8776777,23.1665331 C12.8752882,23.1545897 12.8674102,23.1470016 12.8583906,23.1452862 L12.8583906,23.1452862 Z M12.1430473,23.1473072 C12.1332178,23.1423925 12.1221763,23.1452606 12.1156365,23.1525954 L12.1099173,23.1665331 L12.0757714,23.7811639 C12.0751323,23.7926639 12.0828099,23.8018602 12.0926481,23.8045676 L12.108256,23.8032389 L12.3092106,23.7104931 L12.3186497,23.7024347 L12.3186497,23.7024347 L12.3225043,23.6906389 L12.340401,23.2611114 L12.337245,23.2485176 L12.337245,23.2485176 L12.3277531,23.2396597 L12.1430473,23.1473072 Z" id="MingCute" fill-rule="nonzero"></path>
                <path d="M7.65839,10.4478 C5.97582,10.8292 4.59689,11.4276 3.71006,12.1548 C3.22513,12.5525 3.04805,12.9509 3.00912,13.2717 C2.96903,13.602 3.06346,13.9463 3.28848,14.2505 C3.7336,14.8522 4.6879,15.2711 5.84877,14.7925 C8.54702,13.6799 13.8165,11.5325 19.4843,11.9603 C19.0818,11.6736 18.6237,11.4145 18.1143,11.1845 C14.9375,9.75047 11.015,9.68694 7.65839,10.4478 Z M18.9372,9.36167 C20.6395,10.1301 22.108,11.2831 22.8998,12.9158 C23.0681,13.2628 23.0219,13.6757 22.781,13.9769 C22.5401,14.278 22.1474,14.4138 21.772,14.3258 C15.8145,12.93 9.78907,15.3311 6.61118,16.6414 C4.618,17.4633 2.68113,16.7923 1.68066,15.44 C1.18289,14.7672 0.915929,13.9186 1.02369,13.0307 C1.1326,12.1333 1.6126,11.2884 2.44183,10.6083 C3.65763,9.6113 5.36699,8.91645 7.21626,8.49728 C10.9972,7.64025 15.3643,7.74879 18.9372,9.36167 Z" id="形状" fill="#09244B"></path>
            </g>
        </g>
    </g>
</svg>

<svg xmlns="http://www.w3.org/2000/svg" width="24" height="24"><g fill="none" fill-rule="evenodd"><path d="M24 0v24H0V0h24ZM12.593 23.258l-.011.002-.071.035-.02.004-.014-.004-.071-.035c-.01-.004-.019-.001-.024.005l-.004.01-.017.428.005.02.01.013.104.074.015.004.012-.004.104-.074.012-.016.004-.017-.017-.427c-.002-.01-.009-.017-.017-.018Zm.265-.113-.013.002-.185.093-.01.01-.003.011.018.43.005.012.008.007.201.093c.012.004.023 0 .029-.008l.004-.014-.034-.614c-.003-.012-.01-.02-.02-.022Zm-.715.002a.023.023 0 0 0-.027.006l-.006.014-.034.614c0 .012.007.02.017.024l.015-.002.201-.093.01-.008.004-.011.017-.43-.003-.012-.01-.01-.184-.092Z"/><path fill="#09244B" d="M7.658 10.448c-1.682.381-3.061.98-3.948 1.707-.485.398-.662.796-.7 1.117-.041.33.053.674.278.979.446.601 1.4 1.02 2.56.542 2.699-1.113 7.969-3.26 13.636-2.833a8.11 8.11 0 0 0-1.37-.776c-3.177-1.434-7.099-1.497-10.456-.736Zm11.28-1.086c1.702.768 3.17 1.921 3.962 3.554a1 1 0 0 1-1.128 1.41C15.815 12.93 9.789 15.33 6.612 16.64c-1.994.822-3.93.151-4.931-1.201a3.364 3.364 0 0 1-.657-2.41c.109-.897.589-1.742 1.418-2.422 1.216-.997 2.925-1.692 4.774-2.11 3.781-.858 8.148-.75 11.721.864Z"/></g></svg>
